;FLAVOR:Marlin
;TIME:2618
;Filament used: 1.9203m
;Layer height: 0.21875
;Generated with Cura_SteamEngine 3.2.1
M190 S45
M104 S215
M109 S215
M82 ;absolute extrusion mode
G21;(metric values)
G90;(absolute positioning)
M82;(set extruder to absolute mode)
M107;(start with the fan off)
G28;(Home the printer)
G92 E0;(Reset the extruder to 0)
G0 Z5 E5 F500;(Move up and prime the nozzle)
G0 X-1 Z0;(Move outside the printable area)
G1 Y60 E8 F500;(Draw a priming/wiping line to the rear)
G1 X-1;(Move a little closer to the print area)
G1 Y10 E16 F500;(draw more priming/wiping)
G1 E15 F250;(Small retract)
G92 E0;(Zero the extruder)
;LAYER_COUNT:32
;LAYER:0
M107
G0 F4320 X15.335 Y30.41 Z0.262
;TYPE:SKIRT
G1 F1800 X15.927 Y30.175 E0.02456
G1 X16.544 Y30.016 E0.04913
G1 X17.176 Y29.935 E0.07371
G1 X17.5 Y29.925 E0.08621
G1 X102.5 Y29.925 E3.36414
G1 X103.136 Y29.965 E3.38871
G1 X103.761 Y30.084 E3.41325
G1 X104.367 Y30.281 E3.43782
G1 X104.943 Y30.552 E3.46237
G1 X105.481 Y30.893 E3.48693
G1 X105.972 Y31.299 E3.5115
G1 X106.408 Y31.763 E3.53606
G1 X106.783 Y32.278 E3.56063
G1 X107.09 Y32.835 E3.58515
G1 X107.325 Y33.427 E3.60972
G1 X107.484 Y34.044 E3.63429
G1 X107.565 Y34.676 E3.65886
G1 X107.575 Y35 E3.67136
G1 X107.575 Y85 E5.59955
G1 X107.535 Y85.636 E5.62413
G1 X107.416 Y86.261 E5.64866
G1 X107.219 Y86.867 E5.67324
G1 X106.948 Y87.443 E5.69779
G1 X106.607 Y87.981 E5.72235
G1 X106.201 Y88.472 E5.74692
G1 X105.737 Y88.908 E5.77147
G1 X105.222 Y89.283 E5.79604
G1 X104.665 Y89.59 E5.82057
G1 X104.073 Y89.825 E5.84513
G1 X103.456 Y89.984 E5.8697
G1 X102.824 Y90.065 E5.89427
G1 X102.5 Y90.075 E5.90677
G1 X17.5 Y90.075 E9.18471
G1 X16.864 Y90.035 E9.20928
G1 X16.239 Y89.916 E9.23382
G1 X15.633 Y89.719 E9.25839
G1 X15.057 Y89.448 E9.28294
G1 X14.519 Y89.107 E9.3075
G1 X14.028 Y88.701 E9.33207
G1 X13.592 Y88.237 E9.35663
G1 X13.217 Y87.722 E9.38119
G1 X12.91 Y87.165 E9.40572
G1 X12.675 Y86.573 E9.43028
G1 X12.516 Y85.956 E9.45485
G1 X12.435 Y85.324 E9.47943
G1 X12.425 Y85 E9.49193
G1 X12.425 Y35 E11.42012
G1 X12.465 Y34.364 E11.4447
G1 X12.584 Y33.739 E11.46923
G1 X12.781 Y33.133 E11.49381
G1 X13.052 Y32.557 E11.51835
G1 X13.393 Y32.019 E11.54292
G1 X13.799 Y31.528 E11.56749
G1 X14.263 Y31.092 E11.59204
G1 X14.729 Y30.752 E11.61429
G0 F1620 X14.778 Y30.717
G0 X15.335 Y30.41
G0 F4320 X15.662 Y30.647
G1 F2400 E11.64117
G1 F1800 X16.243 Y30.445 E11.66489
G1 X16.844 Y30.321 E11.68855
G1 X17.5 Y30.275 E11.71391
G1 X102.5 Y30.275 E14.99184
G1 X103.113 Y30.315 E15.01553
G1 X103.716 Y30.434 E15.03924
G1 X104.298 Y30.631 E15.06293
G1 X104.85 Y30.901 E15.08663
G1 X105.362 Y31.241 E15.11033
G1 X105.826 Y31.644 E15.13403
G1 X106.233 Y32.104 E15.15772
G1 X106.578 Y32.613 E15.18143
G1 X106.853 Y33.162 E15.20511
G1 X107.055 Y33.743 E15.22883
G1 X107.179 Y34.344 E15.2525
G1 X107.225 Y35 E15.27786
G1 X107.225 Y85 E17.20605
G1 X107.185 Y85.613 E17.22974
G1 X107.066 Y86.216 E17.25344
G1 X106.869 Y86.798 E17.27714
G1 X106.599 Y87.35 E17.30084
G1 X106.259 Y87.862 E17.32454
G1 X105.856 Y88.326 E17.34824
G1 X105.396 Y88.733 E17.37192
G1 X104.887 Y89.078 E17.39564
G1 X104.338 Y89.353 E17.41932
G1 X103.757 Y89.555 E17.44304
G1 X103.156 Y89.679 E17.4667
G1 X102.5 Y89.725 E17.49206
G1 X17.5 Y89.725 E20.76999
G1 X16.887 Y89.685 E20.79368
G1 X16.284 Y89.566 E20.81739
G1 X15.702 Y89.369 E20.84108
G1 X15.15 Y89.099 E20.86478
G1 X14.638 Y88.759 E20.88848
G1 X14.174 Y88.356 E20.91218
G1 X13.767 Y87.896 E20.93587
G1 X13.422 Y87.387 E20.95958
G1 X13.147 Y86.838 E20.98326
G1 X12.945 Y86.257 E21.00698
G1 X12.821 Y85.656 E21.03065
G1 X12.775 Y85 E21.05601
G1 X12.775 Y35 E22.9842
G1 X12.815 Y34.387 E23.00789
G1 X12.934 Y33.784 E23.03159
G1 X13.131 Y33.202 E23.05529
G1 X13.401 Y32.65 E23.07899
G1 X13.741 Y32.138 E23.10269
G1 X14.144 Y31.674 E23.12639
G1 X14.604 Y31.267 E23.15007
G1 X15.045 Y30.968 E23.17062
G0 F1620 X15.113 Y30.922
G0 X15.662 Y30.647
G0 F4320 X15.446 Y31.137
G1 F2400 E23.1975
G1 F1800 X15.985 Y30.896 E23.22027
G1 X16.553 Y30.729 E23.2431
G1 X17.137 Y30.64 E23.26588
G1 X17.5 Y30.625 E23.27989
G1 X102.5 Y30.625 E26.55782
G1 X103.09 Y30.665 E26.58063
G1 X103.669 Y30.784 E26.60343
G1 X104.227 Y30.98 E26.62623
G1 X104.753 Y31.25 E26.64903
G1 X105.238 Y31.588 E26.67183
G1 X105.673 Y31.988 E26.69462
G1 X106.05 Y32.444 E26.71744
G1 X106.363 Y32.946 E26.74025
G1 X106.604 Y33.485 E26.76302
G1 X106.771 Y34.053 E26.78585
G1 X106.86 Y34.637 E26.80863
G1 X106.875 Y35 E26.82264
G1 X106.875 Y85 E28.75084
G1 X106.835 Y85.59 E28.77364
G1 X106.716 Y86.169 E28.79644
G1 X106.52 Y86.727 E28.81925
G1 X106.25 Y87.253 E28.84205
G1 X105.912 Y87.738 E28.86484
G1 X105.512 Y88.173 E28.88763
G1 X105.056 Y88.55 E28.91045
G1 X104.554 Y88.863 E28.93326
G1 X104.015 Y89.104 E28.95603
G1 X103.447 Y89.271 E28.97887
G1 X102.863 Y89.36 E29.00165
G1 X102.5 Y89.375 E29.01566
G1 X17.5 Y89.375 E32.29359
G1 X16.91 Y89.335 E32.31639
G1 X16.331 Y89.216 E32.33919
G1 X15.773 Y89.02 E32.362
G1 X15.247 Y88.75 E32.3848
G1 X14.762 Y88.412 E32.40759
G1 X14.327 Y88.012 E32.43038
G1 X13.95 Y87.556 E32.4532
G1 X13.637 Y87.054 E32.47601
G1 X13.396 Y86.515 E32.49878
G1 X13.229 Y85.947 E32.52162
G1 X13.14 Y85.363 E32.5444
G1 X13.125 Y85 E32.55841
G1 X13.125 Y35 E34.4866
G1 X13.165 Y34.41 E34.50941
G1 X13.284 Y33.831 E34.5322
G1 X13.48 Y33.273 E34.55501
G1 X13.75 Y32.747 E34.57781
G1 X14.088 Y32.262 E34.60061
G1 X14.488 Y31.827 E34.6234
G1 X14.863 Y31.517 E34.64216
G0 F1620 X14.944 Y31.45
G0 X15.446 Y31.137
G0 F4320 X15.776 Y31.363
G1 F2400 E34.66904
G1 F1800 X16.304 Y31.157 E34.6909
G1 X16.856 Y31.027 E34.71277
G1 X17.5 Y30.975 E34.73768
G1 X102.5 Y30.975 E38.01561
G1 X103.066 Y31.015 E38.0375
G1 X103.62 Y31.134 E38.05935
G1 X104.152 Y31.33 E38.08121
G1 X104.652 Y31.598 E38.10309
G1 X105.108 Y31.935 E38.12495
G1 X105.513 Y32.332 E38.14683
G1 X105.859 Y32.782 E38.16872
G1 X106.137 Y33.276 E38.19058
G1 X106.343 Y33.804 E38.21243
G1 X106.473 Y34.356 E38.2343
G1 X106.525 Y35 E38.25922
G1 X106.525 Y85 E40.18741
G1 X106.485 Y85.566 E40.20929
G1 X106.366 Y86.12 E40.23115
G1 X106.17 Y86.652 E40.25301
G1 X105.902 Y87.152 E40.27489
G1 X105.565 Y87.608 E40.29675
G1 X105.168 Y88.013 E40.31862
G1 X104.718 Y88.359 E40.34051
G1 X104.224 Y88.637 E40.36237
G1 X103.696 Y88.843 E40.38423
G1 X103.144 Y88.973 E40.4061
G1 X102.5 Y89.025 E40.43102
G1 X17.5 Y89.025 E43.70895
G1 X16.934 Y88.985 E43.73083
G1 X16.38 Y88.866 E43.75268
G1 X15.848 Y88.67 E43.77455
G1 X15.348 Y88.402 E43.79642
G1 X14.892 Y88.065 E43.81829
G1 X14.487 Y87.668 E43.84016
G1 X14.141 Y87.218 E43.86205
G1 X13.863 Y86.724 E43.88391
G1 X13.657 Y86.196 E43.90577
G1 X13.527 Y85.644 E43.92764
G1 X13.475 Y85 E43.95255
G1 X13.475 Y35 E45.88075
G1 X13.515 Y34.434 E45.90263
G1 X13.634 Y33.88 E45.92448
G1 X13.83 Y33.348 E45.94634
G1 X14.098 Y32.848 E45.96822
G1 X14.435 Y32.392 E45.99009
G1 X14.832 Y31.987 E46.01196
G1 X15.179 Y31.72 E46.02884
G0 F1620 X15.282 Y31.641
G0 X15.776 Y31.363
G0 F4320 X16.102 Y31.601
G1 F2400 E46.05572
G1 F1800 X16.617 Y31.433 E46.07661
G1 X17.151 Y31.342 E46.0975
G1 X17.5 Y31.325 E46.11098
G1 X102.5 Y31.325 E49.38891
G1 X103.04 Y31.365 E49.40979
G1 X103.569 Y31.484 E49.4307
G1 X104.074 Y31.679 E49.45158
G1 X104.546 Y31.947 E49.47251
G1 X104.972 Y32.281 E49.49338
G1 X105.345 Y32.674 E49.51428
G1 X105.656 Y33.118 E49.53518
G1 X105.899 Y33.602 E49.55607
G1 X106.067 Y34.117 E49.57696
G1 X106.158 Y34.651 E49.59785
G1 X106.175 Y35 E49.61132
G1 X106.175 Y85 E51.53952
G1 X106.135 Y85.54 E51.5604
G1 X106.016 Y86.069 E51.58131
G1 X105.821 Y86.574 E51.60219
G1 X105.553 Y87.046 E51.62312
G1 X105.219 Y87.472 E51.644
G1 X104.826 Y87.845 E51.66489
G1 X104.382 Y88.156 E51.68579
G1 X103.898 Y88.399 E51.70668
G1 X103.383 Y88.567 E51.72757
G1 X102.849 Y88.658 E51.74846
G1 X102.5 Y88.675 E51.76194
G1 X17.5 Y88.675 E55.03987
G1 X16.96 Y88.635 E55.06075
G1 X16.431 Y88.516 E55.08166
G1 X15.926 Y88.321 E55.10253
G1 X15.454 Y88.053 E55.12347
G1 X15.028 Y87.719 E55.14434
G1 X14.655 Y87.326 E55.16524
G1 X14.344 Y86.882 E55.18614
G1 X14.101 Y86.398 E55.20703
G1 X13.933 Y85.883 E55.22792
G1 X13.842 Y85.349 E55.24881
G1 X13.825 Y85 E55.26228
G1 X13.825 Y35 E57.19048
G1 X13.865 Y34.46 E57.21136
G1 X13.984 Y33.931 E57.23227
G1 X14.179 Y33.426 E57.25315
G1 X14.447 Y32.954 E57.27408
G1 X14.781 Y32.528 E57.29495
G1 X15.174 Y32.155 E57.31585
G1 X15.491 Y31.933 E57.33077
G0 F1620 X15.618 Y31.844
G0 X16.102 Y31.601
G0 F4320 X15.951 Y32.058
G1 F2400 E57.35765
G1 F1800 X16.424 Y31.854 E57.37752
G1 X16.923 Y31.725 E57.39739
G1 X17.5 Y31.675 E57.41973
G1 X102.5 Y31.675 E60.69766
G1 X103.014 Y31.715 E60.71754
G1 X103.515 Y31.834 E60.7374
G1 X103.992 Y32.029 E60.75727
G1 X104.434 Y32.295 E60.77716
G1 X104.828 Y32.626 E60.79701
G1 X105.167 Y33.015 E60.81691
G1 X105.442 Y33.451 E60.83679
G1 X105.646 Y33.924 E60.85665
G1 X105.775 Y34.423 E60.87653
G1 X105.825 Y35 E60.89886
G1 X105.825 Y85 E62.82706
G1 X105.785 Y85.514 E62.84694
G1 X105.666 Y86.015 E62.8668
G1 X105.471 Y86.492 E62.88667
G1 X105.205 Y86.934 E62.90656
G1 X104.874 Y87.328 E62.92641
G1 X104.485 Y87.667 E62.94631
G1 X104.049 Y87.942 E62.96619
G1 X103.576 Y88.146 E62.98605
G1 X103.077 Y88.275 E63.00593
G1 X102.5 Y88.325 E63.02826
G1 X17.5 Y88.325 E66.30619
G1 X16.986 Y88.285 E66.32607
G1 X16.485 Y88.166 E66.34593
G1 X16.008 Y87.971 E66.36581
G1 X15.566 Y87.705 E66.3857
G1 X15.172 Y87.374 E66.40554
G1 X14.833 Y86.985 E66.42544
G1 X14.558 Y86.549 E66.44532
G1 X14.354 Y86.076 E66.46519
G1 X14.225 Y85.577 E66.48506
G1 X14.175 Y85 E66.5074
G1 X14.175 Y35 E68.43559
G1 X14.215 Y34.486 E68.45547
G1 X14.334 Y33.985 E68.47533
G1 X14.529 Y33.508 E68.4952
G1 X14.795 Y33.066 E68.5151
G1 X15.126 Y32.672 E68.53494
G1 X15.378 Y32.452 E68.54784
G0 F1620 X15.515 Y32.333
G0 X15.951 Y32.058
G0 F4320 X16.28 Y32.287
G1 F2400 E68.57472
G1 F1800 X16.739 Y32.124 E68.59351
G1 X17.219 Y32.038 E68.61231
G1 X17.5 Y32.025 E68.62316
G1 X102.5 Y32.025 E71.90109
G1 X102.986 Y32.065 E71.9199
G1 X103.459 Y32.184 E71.93871
G1 X103.906 Y32.378 E71.9575
G1 X104.315 Y32.643 E71.97629
G1 X104.675 Y32.971 E71.99507
G1 X104.978 Y33.353 E72.01388
G1 X105.213 Y33.78 E72.03267
G1 X105.376 Y34.239 E72.05145
G1 X105.462 Y34.719 E72.07026
G1 X105.475 Y35 E72.08111
G1 X105.475 Y85 E74.0093
G1 X105.435 Y85.486 E74.02811
G1 X105.316 Y85.959 E74.04692
G1 X105.122 Y86.406 E74.06571
G1 X104.857 Y86.815 E74.0845
G1 X104.529 Y87.175 E74.10328
G1 X104.147 Y87.478 E74.12209
G1 X103.72 Y87.713 E74.14088
G1 X103.261 Y87.876 E74.15967
G1 X102.781 Y87.962 E74.17847
G1 X102.5 Y87.975 E74.18932
G1 X17.5 Y87.975 E77.46725
G1 X17.014 Y87.935 E77.48606
G1 X16.541 Y87.816 E77.50487
G1 X16.094 Y87.622 E77.52366
G1 X15.685 Y87.357 E77.54245
G1 X15.325 Y87.029 E77.56123
G1 X15.022 Y86.647 E77.58004
G1 X14.787 Y86.22 E77.59883
G1 X14.624 Y85.761 E77.61762
G1 X14.538 Y85.281 E77.63642
G1 X14.525 Y85 E77.64727
G1 X14.525 Y35 E79.57546
G1 X14.565 Y34.514 E79.59427
G1 X14.684 Y34.041 E79.61308
G1 X14.878 Y33.594 E79.63187
G1 X15.143 Y33.185 E79.65066
G1 X15.471 Y32.825 E79.66945
G1 X15.689 Y32.652 E79.68018
G0 F1620 X15.853 Y32.522
G0 X16.28 Y32.287
G0 F4320 X16.189 Y32.726
G1 F2400 E79.70706
G1 F1800 X16.604 Y32.533 E79.72471
G1 X17.046 Y32.415 E79.74235
G1 X17.5 Y32.375 E79.75993
G1 X102.5 Y32.375 E83.03786
G1 X102.956 Y32.415 E83.05551
G1 X103.398 Y32.533 E83.07315
G1 X103.813 Y32.727 E83.09082
G1 X104.188 Y32.99 E83.10848
G1 X104.512 Y33.314 E83.12615
G1 X104.774 Y33.689 E83.14379
G1 X104.967 Y34.104 E83.16144
G1 X105.085 Y34.546 E83.17909
G1 X105.125 Y35 E83.19666
G1 X105.125 Y85 E85.12486
G1 X105.085 Y85.456 E85.14251
G1 X104.967 Y85.898 E85.16015
G1 X104.773 Y86.313 E85.17782
G1 X104.51 Y86.688 E85.19548
G1 X104.186 Y87.012 E85.21315
G1 X103.811 Y87.274 E85.23079
G1 X103.396 Y87.467 E85.24844
G1 X102.954 Y87.585 E85.26609
G1 X102.5 Y87.625 E85.28366
G1 X17.5 Y87.625 E88.56159
G1 X17.044 Y87.585 E88.57925
G1 X16.602 Y87.467 E88.59689
G1 X16.187 Y87.273 E88.61455
G1 X15.812 Y87.01 E88.63222
G1 X15.488 Y86.686 E88.64989
G1 X15.226 Y86.311 E88.66753
G1 X15.033 Y85.896 E88.68518
G1 X14.915 Y85.454 E88.70282
G1 X14.875 Y85 E88.7204
G1 X14.875 Y35 E90.64859
G1 X14.915 Y34.544 E90.66624
G1 X15.033 Y34.102 E90.68389
G1 X15.227 Y33.687 E90.70155
G1 X15.49 Y33.312 E90.71922
G1 X15.645 Y33.157 E90.72767
G0 F1620 X15.814 Y32.988
G0 X16.189 Y32.726
G0 F4320 X16.52 Y32.947
G1 F2400 E90.75455
G1 F1800 X16.92 Y32.8 E90.77098
G1 X17.5 Y32.725 E90.79354
G1 X102.5 Y32.725 E94.07147
G1 X102.924 Y32.765 E94.08789
G1 X103.334 Y32.883 E94.10435
G1 X103.714 Y33.076 E94.12078
G1 X104.051 Y33.336 E94.1372
G1 X104.334 Y33.654 E94.15361
G1 X104.553 Y34.02 E94.17006
G1 X104.7 Y34.42 E94.18649
G1 X104.775 Y35 E94.20905
G1 X104.775 Y85 E96.13724
G1 X104.735 Y85.424 E96.15367
G1 X104.617 Y85.834 E96.17012
G1 X104.424 Y86.214 E96.18656
G1 X104.164 Y86.551 E96.20297
G1 X103.846 Y86.834 E96.21939
G1 X103.48 Y87.053 E96.23583
G1 X103.08 Y87.2 E96.25227
G1 X102.5 Y87.275 E96.27482
G1 X17.5 Y87.275 E99.55275
G1 X17.076 Y87.235 E99.56918
G1 X16.666 Y87.117 E99.58563
G1 X16.286 Y86.924 E99.60207
G1 X15.949 Y86.664 E99.61848
G1 X15.666 Y86.346 E99.6349
G1 X15.447 Y85.98 E99.65134
G1 X15.3 Y85.58 E99.66778
G1 X15.225 Y85 E99.69033
G1 X15.225 Y35 E101.61853
G1 X15.265 Y34.576 E101.63495
G1 X15.383 Y34.166 E101.6514
G1 X15.576 Y33.786 E101.66784
G1 X15.836 Y33.449 E101.68425
G1 X15.952 Y33.346 E101.69024
G0 F1620 X16.154 Y33.166
G0 X16.52 Y32.947
G0 F4320 X16.845 Y33.19
G1 F2400 E101.71712
G1 F1800 X17.225 Y33.095 E101.73222
G1 X17.5 Y33.075 E101.74285
G1 X102.5 Y33.075 E105.02079
G1 X102.89 Y33.115 E105.0359
G1 X103.264 Y33.233 E105.05103
G1 X103.606 Y33.424 E105.06613
G1 X103.902 Y33.681 E105.08125
G1 X104.14 Y33.992 E105.09635
G1 X104.31 Y34.345 E105.11146
G1 X104.405 Y34.725 E105.12657
G1 X104.425 Y35 E105.1372
G1 X104.425 Y85 E107.0654
G1 X104.385 Y85.39 E107.08052
G1 X104.267 Y85.764 E107.09564
G1 X104.076 Y86.106 E107.11075
G1 X103.819 Y86.402 E107.12586
G1 X103.508 Y86.64 E107.14097
G1 X103.155 Y86.81 E107.15607
G1 X102.775 Y86.905 E107.17118
G1 X102.5 Y86.925 E107.18181
G1 X17.5 Y86.925 E110.45974
G1 X17.11 Y86.885 E110.47486
G1 X16.736 Y86.767 E110.48999
G1 X16.394 Y86.576 E110.50509
G1 X16.098 Y86.319 E110.52021
G1 X15.86 Y86.008 E110.53531
G1 X15.69 Y85.655 E110.55042
G1 X15.595 Y85.275 E110.56553
G1 X15.575 Y85 E110.57616
G1 X15.575 Y35 E112.50436
G1 X15.615 Y34.61 E112.51947
G1 X15.733 Y34.236 E112.5346
G1 X15.924 Y33.894 E112.5497
G1 X16.181 Y33.598 E112.56482
G1 X16.249 Y33.546 E112.56812
G0 F1620 X16.492 Y33.36
G0 X16.845 Y33.19
G0 F4320 X16.824 Y33.577
G1 F2400 E112.595
G1 F1800 X17.16 Y33.462 E112.6087
G1 X17.5 Y33.425 E112.62189
G1 X102.5 Y33.425 E115.89982
G1 X102.852 Y33.465 E115.91348
G1 X103.186 Y33.582 E115.92713
G1 X103.486 Y33.772 E115.94082
G1 X103.736 Y34.023 E115.95448
G1 X103.923 Y34.324 E115.96815
G1 X104.038 Y34.66 E115.98184
G1 X104.075 Y35 E115.99503
G1 X104.075 Y85 E117.92323
G1 X104.035 Y85.352 E117.93689
G1 X103.918 Y85.686 E117.95054
G1 X103.728 Y85.986 E117.96423
G1 X103.477 Y86.236 E117.97789
G1 X103.176 Y86.423 E117.99156
G1 X102.84 Y86.538 E118.00525
G1 X102.5 Y86.575 E118.01844
G1 X17.5 Y86.575 E121.29638
G1 X17.148 Y86.535 E121.31004
G1 X16.814 Y86.418 E121.32369
G1 X16.514 Y86.228 E121.33738
G1 X16.264 Y85.977 E121.35104
G1 X16.077 Y85.676 E121.36471
G1 X15.962 Y85.34 E121.3784
G1 X15.925 Y85 E121.39159
G1 X15.925 Y35 E123.31979
G1 X15.965 Y34.648 E123.33345
G1 X16.082 Y34.314 E123.3471
G1 X16.272 Y34.014 E123.36079
G1 X16.28 Y34.006 E123.36123
G0 F1620 X16.523 Y33.764
G0 X16.824 Y33.577
G0 F4320 X16.862 Y33.954
G1 F2400 E123.38811
G1 F1800 X17.147 Y33.827 E123.40014
G1 X17.5 Y33.775 E123.4139
G1 X102.5 Y33.775 E126.69183
G1 X102.81 Y33.815 E126.70388
G1 X103.1 Y33.932 E126.71594
G1 X103.35 Y34.118 E126.72796
G1 X103.546 Y34.362 E126.74003
G1 X103.673 Y34.647 E126.75206
G1 X103.725 Y35 E126.76582
G1 X103.725 Y85 E128.69402
G1 X103.685 Y85.31 E128.70607
G1 X103.568 Y85.6 E128.71813
G1 X103.382 Y85.85 E128.73015
G1 X103.138 Y86.046 E128.74222
G1 X102.853 Y86.173 E128.75425
G1 X102.5 Y86.225 E128.76801
G1 X17.5 Y86.225 E132.04594
G1 X17.19 Y86.185 E132.05799
